X:1
T:Lord, Lord, Lord
M:4/4
L:1/4
R:Traditional
K:Bbmaj
"Bb" B2 d2 | f3/2 b/2 z2 | bb_a f/2 d/2-| "Bb7" d4| 
w:Lord, Lord, Lord, Lord Sure been good to me. _
"Eb" e2 g2| b3/2 _d'/2 z2| _d' d' c' b/2b/2-|"Bb7" b4 | 
w:Lord, Lord Lord, Lord, Sure been good to me. _
"Bb" b2 _a2 | f3/2 b/2 z2 | bb_a f/2 d/2-| 
w:Lord, Lord, Lord, Lord, Sure Been good to me _
d d e =e | "F7" ff2 z| "Eb7" e e d c/2B/2- | "Bb7" B4| z4 |
w:_ Cause I'm a sol-dier,  a sol-dier of the Lord
